svg/fluentui-system-icons/ic_fluent_call_warning_20_regular.svg

<svg width="20" height="20" viewBox="0 0 20 20" fill="none" xmlns="http://www.w3.org/2000/svg">
<path d="M12.6029 1.55356L9.10678 8.55202C8.77438 9.21741 9.2583 10 10.0022 10H16.9978C17.7419 10 18.2258 9.21709 17.893 8.55167L14.3935 1.55322C14.0246 0.815436 12.9716 0.815638 12.6029 1.55356ZM13.9983 3.49509V6.49741C13.9983 6.77376 13.7743 6.99779 13.4979 6.99779C13.2215 6.99779 12.9975 6.77376 12.9975 6.49741V3.49509C12.9975 3.21873 13.2215 2.9947 13.4979 2.9947C13.7743 2.9947 13.9983 3.21873 13.9983 3.49509ZM13.4979 8.99934C13.2215 8.99934 12.9975 8.77531 12.9975 8.49895C12.9975 8.2226 13.2215 7.99857 13.4979 7.99857C13.7743 7.99857 13.9983 8.2226 13.9983 8.49895C13.9983 8.77531 13.7743 8.99934 13.4979 8.99934ZM3.55101 2.44263C4.40494 1.96485 5.49406 1.85263 6.53544 2.11644C7.04218 2.24481 7.47512 2.57336 7.73513 3.02685L8.70699 4.72193C9.33337 5.81444 9.04934 7.20233 8.04412 7.96093L7.44299 8.41458C7.1603 8.62792 7.04329 8.92986 7.10089 9.1852C7.28407 9.99723 7.68784 10.7511 8.25304 11.3062C8.42164 11.4718 8.71835 11.5286 9.04092 11.4052L9.70661 11.1506C10.8657 10.7072 12.1747 11.1813 12.781 12.2641L13.7345 13.9668C13.9975 14.4364 14.0415 14.9978 13.8548 15.5026C13.4838 16.5056 12.7694 17.3141 11.8903 17.7192C10.9973 18.1307 9.95159 18.1141 9.0056 17.483C7.50831 16.4842 5.70298 14.8044 4.06815 12.0019C2.41207 9.16293 1.99456 6.7454 2.04156 4.94406C2.07166 3.79014 2.68184 2.92893 3.55101 2.44263ZM4.03928 3.31532C3.45254 3.6436 3.06139 4.19707 3.04122 4.97014C2.99912 6.58364 3.36852 8.81792 4.93193 11.498C6.49007 14.1691 8.18976 15.7367 9.56054 16.6511C10.2001 17.0778 10.8752 17.0859 11.4718 16.811C12.0825 16.5296 12.6267 15.9403 12.9169 15.1557C13.002 14.9255 12.982 14.6695 12.862 14.4554L11.9085 12.7527C11.5447 12.103 10.7594 11.8186 10.0639 12.0846L9.39819 12.3392C8.8175 12.5614 8.0737 12.5317 7.55233 12.0196C6.83828 11.3183 6.34709 10.388 6.1254 9.40525C5.96194 8.68059 6.32141 8.00819 6.84061 7.61637L7.44174 7.16272C8.04487 6.70756 8.21529 5.87483 7.83946 5.21932L6.8676 3.52424C6.74239 3.30585 6.5339 3.14764 6.28987 3.08582C5.46263 2.87625 4.64126 2.97852 4.03928 3.31532Z" fill="#212121"/>
</svg>

<svg xmlns="http://www.w3.org/2000/svg" width="20" height="20"><path d="M12.603 1.554 9.107 8.552A1 1 0 0 0 10.002 10h6.996a1 1 0 0 0 .895-1.448l-3.5-6.999a1 1 0 0 0-1.79 0Zm1.395 1.941v3.002a.5.5 0 1 1-1 0V3.495a.5.5 0 1 1 1 0ZM13.498 9a.5.5 0 1 1 0-1 .5.5 0 0 1 0 1ZM3.55 2.443c.854-.478 1.943-.59 2.984-.327.507.129.94.457 1.2.91l.972 1.696a2.5 2.5 0 0 1-.663 3.239l-.601.454c-.283.213-.4.515-.342.77.183.812.587 1.566 1.152 2.121.169.166.465.223.788.1l.666-.255a2.5 2.5 0 0 1 3.074 1.113l.954 1.703c.263.47.306 1.03.12 1.536-.371 1.003-1.086 1.811-1.965 2.216-.893.412-1.938.395-2.884-.236-1.498-.999-3.303-2.679-4.938-5.481-1.656-2.84-2.073-5.257-2.026-7.058.03-1.154.64-2.015 1.509-2.501Zm.488.872c-.586.329-.978.882-.998 1.655-.042 1.614.328 3.848 1.89 6.528 1.56 2.671 3.259 4.239 4.63 5.153.64.427 1.314.435 1.91.16.611-.281 1.156-.87 1.446-1.655a.838.838 0 0 0-.055-.7l-.954-1.703a1.5 1.5 0 0 0-1.844-.668l-.666.254c-.58.222-1.324.193-1.846-.32-.714-.7-1.205-1.631-1.427-2.614-.163-.724.196-1.397.716-1.789l.6-.453a1.5 1.5 0 0 0 .398-1.944l-.971-1.695a.929.929 0 0 0-.578-.438c-.827-.21-1.649-.107-2.25.23Z"/></svg>
